copytrade/img/icomoon/telegram.svg

<svg width="20" height="20" viewBox="0 0 20 20" fill="none" xmlns="http://www.w3.org/2000/svg">
<path fill-rule="evenodd" clip-rule="evenodd" d="M18.1612 2.58314C18.4416 2.8303 18.5608 3.21323 18.4701 3.57587L15.1368 16.9092C15.0494 17.2587 14.7808 17.5342 14.4336 17.6304C14.0864 17.7266 13.7143 17.6285 13.4596 17.3738L10.1082 14.0224L8.30001 16.4333C8.07684 16.7309 7.70696 16.88 7.33982 16.8204C6.97268 16.7608 6.66894 16.5024 6.55132 16.1496L5.01564 11.5425L2.05279 10.0611C1.69901 9.88421 1.48274 9.51542 1.50108 9.12031C1.51942 8.7252 1.76892 8.37802 2.13756 8.23466L17.1376 2.40133C17.4859 2.26585 17.8808 2.33598 18.1612 2.58314ZM10.7193 11.805C10.7119 11.7974 10.7044 11.7899 10.6967 11.7825L10.5809 11.6667L13.2071 9.04044C13.5976 8.64992 13.5976 8.01675 13.2071 7.62623C12.8166 7.2357 12.1834 7.2357 11.7929 7.62623L8.45957 10.9596C8.27203 11.1471 8.16667 11.4015 8.16667 11.6667C8.16667 11.9319 8.27203 12.1862 8.45957 12.3738L8.67963 12.5938L7.84515 13.7065L6.78202 10.5171C6.69815 10.2655 6.51777 10.0575 6.28055 9.93891L4.96487 9.28106L16.0611 4.96587L13.6249 14.7107L10.7193 11.805Z" fill="#282C33"/>
</svg>

<svg width="20" height="20" fill="none" xmlns="http://www.w3.org/2000/svg"><path fill-rule="evenodd" clip-rule="evenodd" d="M18.161 2.583a1 1 0 01.31.993l-3.334 13.333a1 1 0 01-1.677.465l-3.352-3.352L8.3 16.433a1 1 0 01-1.749-.283l-1.535-4.607-2.963-1.482a1 1 0 01.085-1.826l15-5.834a1 1 0 011.023.182zm-7.442 9.222a.96.96 0 00-.022-.022l-.116-.116 2.626-2.627a1 1 0 00-1.414-1.414L8.46 10.96a1 1 0 000 1.414l.22.22-.835 1.113-1.063-3.19a1 1 0 00-.501-.578L4.965 9.28 16.06 4.966l-2.436 9.745-2.906-2.906z" fill="#282C33"/></svg>
